X:1
T: Mrs. Fraser of Lovat
C:
R:Strathspey
Q: 128
K:Am
M:4/4
L:1/16
|:G2|EA,3 E3D EA,3 A,3C|B,3G EDCB, DG,3 G,3G|EA,3 E3D EA,3 A,2B,C|D2EF EDCB, CA,3 A,2G2|
EA,3 E3D EA,3 A,3C|B,3G EDCB, DG,3 G,3G|EA,3 E3D EA,3 A,2B,C|D2EF EDCB, CA,3 A,2cB|
A3a c3a A3a e2dc|G3g B3g G3g edcB|A3a c3a A3a fedc|BcdB ecdB cA3 A2cB|
A3a c3a A3a fedc|G3g B3g G3g edcB|ABcA BcdB cdec defd|e3E edcB cA3 A2:|
